X: 3
T: The Green Fields of America
M: C|
L: 1/8
R: Reel
B: O'Neill's 1240
N: Collected by F. O'Neill
Z: Transcribed by Trish O'Neil (chords by John Chambers)
K: G
|: "C"c2(ec) "G"B2(dB) | "Am"AGAB "(D7)"AGEF | "G"GAGE DEGB | "Am"AGAB "D7"AGAB |
|  "C"c2(ec) "G"B2(dB) | "Am"AGAB "(D7)"AGEF | "G"GAGE DEGA | "D7"BGAF "G"G2z2 :|
|: "G"GABc d2ef | "(C)"gage "G"dBGB | "C"c2(ec) "G"B2(dB) | "Am"AGAB AGE2 |
|  "G"gfgd "(C)"efge | "G"dBAG "Am"AGEF | "G"GAGE DEGA | "D7"BGAF "G"G2z2 :|

